X: 030260
T: Carmel's Birthday
C: Peter Fitzgerald
Z: B.Black
R: reel
M: 4/4
L: 1/8
K: Amix
ed |: c2 AE FAEC | ACEC FCEC | A,B,CE A2 cA |\
G2 eG dGed |
c2 AE FAEC | AC C2 FCEC | A,CEF EGBd |1\
(3Bcd BG A^GAB :|
|2 (3cde cA A4 || ae e2 defa | gedB cAGE |\
A2 ED CECA, |
G,2 EG, DG,EG | AE E2 GABG | AECA G,B,DE |\
^GBEF D=GBd |
|1 (3Bcd BG A2 Ae :|2 (3Bcd BG A4 ||
